svgs/sharp-thin/business-time.svg

<svg xmlns="http://www.w3.org/2000/svg" viewBox="0 0 640 512"><!--! Font Awesome Pro 6.6.0 by @fontawesome - https://fontawesome.com License - https://fontawesome.com/license (Commercial License) Copyright 2024 Fonticons, Inc. --><path d="M136 0l-8 0 0 8 0 88L16 96 0 96l0 16L0 264 0 464l0 16 16 0 344.2 0c-4.2-5.1-8.1-10.4-11.8-16L16 464l0-192 160 0 0 64 0 16 16 0 128.7 0c.5-5.4 1.2-10.7 2.2-16L192 336l0-64 156.5 0c3.6-5.6 7.6-10.9 11.8-16l-8.2 0-160 0-16 0L16 256l0-144 120 0 240 0 120 0 0 80c5.4 0 10.7 .2 16 .7l0-80.7 0-16-16 0L384 96l0-88 0-8-8 0L136 0zM368 96L144 96l0-80 224 0 0 80zM496 240a128 128 0 1 1 0 256 128 128 0 1 1 0-256zm0 272a144 144 0 1 0 0-288 144 144 0 1 0 0 288zm8-224l-16 0 0 8 0 72 0 8 8 0 56 0 8 0 0-16-8 0-48 0 0-64 0-8z"/></svg>

<svg xmlns="http://www.w3.org/2000/svg" viewBox="0 0 640 512"><!--! Font Awesome Pro 6.5.2 by @fontawesome - https://fontawesome.com License - https://fontawesome.com/license (Commercial License) Copyright 2024 Fonticons, Inc. --><path d="M136 0h-8V8 96H16 0v16V264 464v16H16 360.2c-4.2-5.1-8.1-10.4-11.8-16H16V272H176v64 16h16H320.7c.5-5.4 1.2-10.7 2.2-16H192V272H348.5c3.6-5.6 7.6-10.9 11.8-16H352 192 176 16V112H136 376 496v80c5.4 0 10.7 .2 16 .7V112 96H496 384V8 0h-8H136zM368 96H144V16H368V96zM496 240a128 128 0 1 1 0 256 128 128 0 1 1 0-256zm0 272a144 144 0 1 0 0-288 144 144 0 1 0 0 288zm8-224H488v8 72 8h8 56 8V360h-8H504V296v-8z"/></svg>
